X: 30300
T: Old Man Dillon
R: jig
M: 6/8
K: Gdorian
DGG GAc|dfd cAG|AFF FAF|FAG FDC|
DGG GAc|def g2g|gfd cAc|1 dGG G2F:|2 dGG G2g||
|:fde f2g|fde fcB|AFF FAF|FAG FDC|
1 fde f2g|fde fdc|=B2G GAB|ced c2f:|
2 DGG GAc|def g2g|gfd cAc|dGG G2F||

